assets/icons/qvision/no_flash.svg

<svg width="24" height="24" viewBox="0 0 24 24" fill="none" xmlns="http://www.w3.org/2000/svg">
<g clip-path="url(#clip0_147_6244)">
<path d="M13.93 13.93L2.45004 2.45L1.04004 3.87L6.34004 9.17L6.14004 9.4H3.60004C2.72004 9.4 2.00004 10.12 2.00004 11V20.4C2.00004 21.28 2.72004 22 3.60004 22H16.4C17.15 22 17.78 21.48 17.95 20.78L20.13 22.96L21.54 21.55L18 18L13.93 13.93ZM10 20C7.79004 20 6.00004 18.21 6.00004 16C6.00004 14.05 7.40004 12.43 9.25004 12.08L10.82 13.65C10.56 13.56 10.29 13.5 10 13.5C8.62004 13.5 7.50004 14.62 7.50004 16C7.50004 17.38 8.62004 18.5 10 18.5C11.38 18.5 12.5 17.38 12.5 16C12.5 15.71 12.44 15.44 12.35 15.18L13.92 16.75C13.57 18.6 11.95 20 10 20ZM18 15.17L10.83 8H12.58L13.86 9.4H16.4C17.28 9.4 18 10.12 18 11V15.17ZM20.4 5.6H22L19 11V7H18V2H22L20.4 5.6Z" fill="#323232"/>
</g>
<defs>
<clipPath id="clip0_147_6244">
<rect width="24" height="24" fill="white"/>
</clipPath>
</defs>
</svg>

<svg xmlns="http://www.w3.org/2000/svg" enable-background="new 0 0 24 24" height="24" viewBox="0 0 24 24" width="24"><g><rect fill="none" height="24" width="24"/><path d="M13.93,13.93L2.45,2.45L1.04,3.87l5.3,5.3L6.14,9.4H3.6C2.72,9.4,2,10.12,2,11v9.4C2,21.28,2.72,22,3.6,22h12.8 c0.75,0,1.38-0.52,1.55-1.22l2.18,2.18l1.41-1.41L18,18L13.93,13.93z M10,20c-2.21,0-4-1.79-4-4c0-1.95,1.4-3.57,3.25-3.92 l1.57,1.57c-0.26-0.09-0.53-0.15-0.82-0.15c-1.38,0-2.5,1.12-2.5,2.5c0,1.38,1.12,2.5,2.5,2.5c1.38,0,2.5-1.12,2.5-2.5 c0-0.29-0.06-0.56-0.15-0.82l1.57,1.57C13.57,18.6,11.95,20,10,20z M18,15.17L10.83,8h1.75l1.28,1.4h2.54c0.88,0,1.6,0.72,1.6,1.6 V15.17z M20.4,5.6H22L19,11V7h-1V2h4L20.4,5.6z"/></g></svg>
